packages/foundations/assets/icons/functional/images/communication/speech_bubbles.svg

<svg xmlns="http://www.w3.org/2000/svg" width="32" height="32" fill="none"><path fill="#1A1C1F" fill-rule="evenodd" d="M11.206 2.111c-.768.207-1.548.855-1.886 1.569a4 4 0 0 0-.248.683c-.082.395-.082 10.879 0 11.274.212 1.027 1.028 1.894 2.128 2.263.277.092.625.099 6.24.112 3.271.008 6.007.028 6.08.044.083.019 1.047.942 2.533 2.425 1.32 1.316 2.468 2.419 2.55 2.45.519.193 1.217-.13 1.357-.628.022-.079.04-4.115.04-8.97V4.507l-.148-.418c-.354-1.001-1.122-1.727-2.095-1.981-.459-.119-16.106-.117-16.551.003m16.261 1.988c.103.054.258.2.346.324l.16.226.014 7.474.014 7.473-1.56-1.547c-1.303-1.29-1.614-1.572-1.881-1.7-.717-.344-.222-.319-6.862-.348l-6.061-.028-.205-.165a1.6 1.6 0 0 1-.312-.347c-.105-.178-.107-.277-.107-5.408 0-2.874.018-5.29.04-5.369.06-.214.303-.474.545-.584.206-.093.561-.098 7.949-.099 7.43-.001 7.742.003 7.92.098M4.248 9.098c-.995.241-1.819 1.057-2.15 2.131-.093.303-.098.733-.098 9.171v8.853l.133.266c.228.453.586.567 1.178.375.271-.088.436-.24 2.609-2.401 1.276-1.269 2.38-2.34 2.453-2.38.109-.06 1.067-.078 5.227-.1l5.093-.027.316-.12q1.344-.51 1.825-1.915c.124-.361.147-.528.168-1.224.026-.883-.01-1.084-.244-1.363-.167-.197-.503-.361-.746-.363a1.17 1.17 0 0 0-.696.282c-.262.244-.299.388-.328 1.268-.027.808-.032.836-.177 1.027-.313.409.103.379-5.558.409-5.027.027-5.069.029-5.369.143-.58.22-.903.486-2.405 1.982l-1.48 1.474.014-7.475.014-7.474.165-.205c.3-.371.419-.41 1.355-.443.812-.028.84-.033 1.031-.179.596-.454.529-1.357-.126-1.69-.183-.094-.309-.106-1.05-.102-.529.003-.958.032-1.154.08"/></svg>

<svg width="32" height="32" viewBox="0 0 32 32" fill="none" xmlns="http://www.w3.org/2000/svg"><path d="M11.206 2.111 C 10.438 2.318,9.658 2.966,9.320 3.680 C 9.216 3.900,9.104 4.207,9.072 4.363 C 8.990 4.758,8.990 15.242,9.072 15.637 C 9.284 16.664,10.100 17.531,11.200 17.900 C 11.477 17.992,11.825 17.999,17.440 18.012 C 20.711 18.020,23.447 18.040,23.520 18.056 C 23.603 18.075,24.567 18.998,26.053 20.481 C 27.373 21.797,28.521 22.900,28.603 22.931 C 29.122 23.124,29.820 22.801,29.960 22.303 C 29.982 22.224,30.000 18.188,30.000 13.333 L 30.000 4.507 29.852 4.089 C 29.498 3.088,28.730 2.362,27.757 2.108 C 27.298 1.989,11.651 1.991,11.206 2.111 M27.467 4.099 C 27.570 4.153,27.725 4.299,27.813 4.423 L 27.973 4.649 27.987 12.123 L 28.001 19.596 26.441 18.049 C 25.138 16.759,24.827 16.477,24.560 16.349 C 23.843 16.005,24.338 16.030,17.698 16.001 L 11.637 15.973 11.432 15.808 C 11.319 15.717,11.179 15.561,11.120 15.461 C 11.015 15.283,11.013 15.184,11.013 10.053 C 11.013 7.179,11.031 4.763,11.053 4.684 C 11.113 4.470,11.356 4.210,11.598 4.100 C 11.804 4.007,12.159 4.002,19.547 4.001 C 26.977 4.000,27.289 4.004,27.467 4.099 M4.248 9.098 C 3.253 9.339,2.429 10.155,2.098 11.229 C 2.005 11.532,2.000 11.962,2.000 20.400 L 2.000 29.253 2.133 29.519 C 2.361 29.972,2.719 30.086,3.311 29.894 C 3.582 29.806,3.747 29.654,5.920 27.493 C 7.196 26.224,8.300 25.153,8.373 25.113 C 8.482 25.053,9.440 25.035,13.600 25.013 L 18.693 24.986 19.009 24.866 C 19.905 24.526,20.513 23.888,20.834 22.951 C 20.958 22.590,20.981 22.423,21.002 21.727 C 21.028 20.844,20.992 20.643,20.758 20.364 C 20.591 20.167,20.255 20.003,20.012 20.001 C 19.796 20.000,19.483 20.126,19.316 20.283 C 19.054 20.527,19.017 20.671,18.988 21.551 C 18.961 22.359,18.956 22.387,18.811 22.578 C 18.498 22.987,18.914 22.957,13.253 22.987 C 8.226 23.014,8.184 23.016,7.884 23.130 C 7.304 23.350,6.981 23.616,5.479 25.112 L 3.999 26.586 4.013 19.111 L 4.027 11.637 4.192 11.432 C 4.492 11.061,4.611 11.022,5.547 10.989 C 6.359 10.961,6.387 10.956,6.578 10.810 C 7.174 10.356,7.107 9.453,6.452 9.120 C 6.269 9.026,6.143 9.014,5.402 9.018 C 4.873 9.021,4.444 9.050,4.248 9.098 " fill="#1A1C1F" stroke="none" fill-rule="evenodd"></path></svg>
